; generated by PrusaSlicer 2.1.1+win64 on 2020-02-06 at 04:51:55 UTC

; 

; external perimeters extrusion width = 0.45mm
; perimeters extrusion width = 0.45mm
; infill extrusion width = 0.45mm
; solid infill extrusion width = 0.45mm
; top infill extrusion width = 0.40mm
; support material extrusion width = 0.35mm
; first layer extrusion width = 0.42mm

M73 P0 R166
M73 Q0 S167
M201 X1000 Y1000 Z1000 E5000 ; sets maximum accelerations, mm/sec^2
M203 X200 Y200 Z12 E120 ; sets maximum feedrates, mm/sec
M204 P1250 R1250 T1250 ; sets acceleration (P, T) and retract acceleration (R), mm/sec^2
M205 X8.00 Y8.00 Z0.40 E1.50 ; sets the jerk limits, mm/sec
M205 S0 T0 ; sets the minimum extruding and travel feed rate, mm/sec
M107
M862.3 P "MK3S" ; printer model check
M862.1 P0.4 ; nozzle diameter check
M115 U3.8.1 ; tell printer latest fw version
G90 ; use absolute coordinates
M83 ; extruder relative mode
M104 S215 ; set extruder temp
M140 S60 ; set bed temp
M190 S60 ; wait for bed temp
M109 S215 ; wait for extruder temp
G28 W ; home all without mesh bed level
G80 ; mesh bed leveling
G1 Y-3.0 F1000.0 ; go outside print area
G92 E0.0
G1 X60.0 E9.0 F1000.0 ; intro line
M73 Q0 S167
M73 P0 R166
G1 X100.0 E12.5 F1000.0 ; intro line
G92 E0.0
M221 S95
G21 ; set units to millimeters
G90 ; use absolute coordinates
M83 ; use relative distances for extrusion
M900 K30 ; Filament gcode
;BEFORE_LAYER_CHANGE
G92 E0.0
;0.2


G1 E-0.80000 F2100.00000
G1 Z0.600 F10800.000
;AFTER_LAYER_CHANGE
;0.2
G1 X78.562 Y66.279
G1 Z0.200
G1 E0.80000 F2100.00000
M204 S1000
G1 F1200
G1 X79.144 Y65.820 E0.02326
G1 X83.725 Y63.484 E0.16121
G1 X84.254 Y63.297 E0.01760
G1 X95.533 Y60.959 E0.36117
G1 X103.566 Y60.941 E0.25187
G1 X104.256 Y61.053 E0.02191
G1 X104.879 Y61.378 E0.02202
G1 X127.940 Y78.742 E0.90512
G1 X128.388 Y79.211 E0.02032
G1 X128.680 Y79.793 E0.02044
G1 X128.789 Y80.469 E0.02146
G1 X128.788 Y131.657 E1.60495
G1 X128.668 Y132.315 E0.02100
G1 X128.354 Y132.907 E0.02100
G1 X127.876 Y133.376 E0.02100
G1 X127.278 Y133.679 E0.02100
G1 X126.602 Y133.787 E0.02146
G1 X89.096 Y133.787 E1.17597
G1 X84.641 Y133.708 E0.13972
G1 X83.986 Y133.585 E0.02089
G1 X83.399 Y133.271 E0.02089
G1 X82.933 Y132.795 E0.02089
G1 X82.632 Y132.200 E0.02089
G1 X71.256 Y85.650 E1.50249
G1 X70.724 Y80.366 E0.16653
G1 X71.300 Y77.271 E0.09872
G1 X71.575 Y76.679 E0.02044
G1 X78.528 Y66.329 E0.39097
G1 F8640
G1 X79.144 Y65.820 E-0.18456
G1 X81.365 Y64.688 E-0.57544
G1 E-0.04000 F2100.00000
G1 Z0.800 F10800.000
G1 X80.187 Y73.341
G1 Z0.200
G1 E0.80000 F2100.00000
G1 F1200
G1 X80.187 Y67.744 E0.17548
G1 X80.942 Y67.744 E0.02365
G1 X80.942 Y72.347 E0.14431
G1 X81.696 Y71.592 E0.03344
G1 X81.696 Y67.744 E0.12066
G1 X82.450 Y67.744 E0.02365
G1 X82.450 Y71.178 E0.10767
G1 X83.204 Y71.048 E0.02400
G1 X83.204 Y67.744 E0.10358
G1 X83.958 Y67.744 E0.02365
G1 X83.958 Y70.917 E0.09949
G1 X84.712 Y70.787 E0.02400
G1 X84.712 Y65.437 E0.16774
G1 X85.467 Y65.437 E0.02365
G1 X85.467 Y70.657 E0.16366
G1 X86.221 Y70.526 E0.02400
G1 X86.221 Y65.437 E0.15957
G1 X86.975 Y65.437 E0.02365
G1 X86.975 Y70.396 E0.15548
G1 X87.729 Y70.266 E0.02400
G1 X87.729 Y65.437 E0.15140
G1 X88.483 Y65.437 E0.02365
G1 X88.483 Y70.135 E0.14731
G1 X89.237 Y70.005 E0.02400
G1 X89.237 Y65.437 E0.14322
G1 X89.991 Y65.437 E0.02365
G1 X89.991 Y69.875 E0.13913
G1 X90.746 Y69.744 E0.02400
G1 X90.746 Y65.437 E0.13505
G1 X91.500 Y65.437 E0.02365
G1 X91.500 Y69.614 E0.13096
G1 X92.254 Y69.483 E0.02400
G1 X92.254 Y65.437 E0.12687
G1 X93.008 Y65.437 E0.02365
G1 X93.008 Y69.353 E0.12279
G1 X93.762 Y69.223 E0.02400
G1 X93.762 Y65.437 E0.11870
G1 X94.516 Y65.437 E0.02365
G1 X94.516 Y69.092 E0.11461
G1 X95.271 Y68.962 E0.02400
G1 X95.271 Y65.437 E0.11052
G1 X95.813 Y65.437 E0.01700
G1 X95.813 Y63.130 E0.07234
G1 X96.025 Y63.130 E0.00664
G1 X96.025 Y68.832 E0.17877
G1 X96.779 Y68.701 E0.02400
G1 X96.779 Y63.130 E0.17469
G1 X97.533 Y63.130 E0.02365
G1 X97.533 Y68.571 E0.17060
G1 X98.287 Y68.441 E0.02400
G1 X98.287 Y63.130 E0.16651
G1 X99.041 Y63.130 E0.02365
G1 X99.041 Y68.310 E0.16243
G1 X99.796 Y68.180 E0.02400
G1 X99.796 Y63.130 E0.15834
G1 X100.550 Y63.130 E0.02365
G1 X100.550 Y68.222 E0.15965
G1 F8640
G1 X100.550 Y64.930 E-0.76000
G1 E-0.04000 F2100.00000
G1 Z0.800 F10800.000
G1 X97.533 Y75.385
G1 Z0.200
G1 E0.80000 F2100.00000
G1 F1200
G1 X97.533 Y75.981 E0.01869
G1 X98.287 Y75.981 E0.02365
G1 X98.287 Y74.871 E0.03482
G1 X99.041 Y74.116 E0.03344
G1 X99.041 Y75.981 E0.05846
G1 X99.796 Y75.981 E0.02365
G1 X99.796 Y73.362 E0.08211
G1 X100.550 Y72.608 E0.03344
G1 X100.550 Y75.981 E0.10575
G1 X101.304 Y75.981 E0.02365
G1 X101.304 Y63.130 E0.40294
G1 X102.058 Y63.130 E0.02365
G1 X102.058 Y75.981 E0.40294
G1 X102.812 Y75.981 E0.02365
G1 X102.812 Y63.130 E0.40294
G1 X103.566 Y63.130 E0.02365
G1 X103.566 Y76.151 E0.40826
G1 F8640
G1 X103.566 Y72.859 E-0.76000
G1 E-0.04000 F2100.00000
G1 Z0.800 F10800.000
G1 X101.304 Y80.229
G1 Z0.200
G1 E0.80000 F2100.00000
G1 F1200
G1 X101.304 Y79.760 E0.01472
G1 X100.799 Y79.557 E0.01705
G1 X100.550 Y79.503 E0.00801
G1 X100.550 Y80.059 E0.01745
G1 X99.796 Y80.059 E0.02365
G1 X99.796 Y79.397 E0.02078
G1 X99.426 Y79.381 E0.01159
G1 X99.041 Y79.430 E0.01216
G1 X99.041 Y80.059 E0.01973
G1 X98.287 Y80.059 E0.02365
G1 X98.287 Y79.607 E0.01419
G1 X98.073 Y79.673 E0.00703
G1 X97.533 Y79.945 E0.01895
G1 X97.533 Y80.229 E0.00892
G1 F8640
G1 X97.533 Y79.945 E-0.06566
G1 X98.073 Y79.673 E-0.13959
G1 X98.287 Y79.607 E-0.05176
G1 X98.287 Y80.059 E-0.10448
G1 X99.041 Y80.059 E-0.17414
G1 X99.041 Y79.430 E-0.14529
G1 X99.381 Y79.387 E-0.07909
G1 E-0.04000 F2100.00000
G1 Z0.800 F10800.000
G1 X99.041 Y82.354
G1 Z0.200
G1 E0.80000 F2100.00000
G1 F1200
G1 X99.041 Y84.402 E0.06422
G1 X99.195 Y84.480 E0.00541
G1 X99.371 Y84.534 E0.00577
G1 X99.554 Y84.557 E0.00577
G1 X99.796 Y84.537 E0.00760
G1 X99.796 Y82.409 E0.06671
G1 X99.918 Y82.436 E0.00392
G1 X100.088 Y82.504 E0.00577
G1 X100.245 Y82.601 E0.00577
G1 X100.383 Y82.722 E0.00577
G1 X100.550 Y82.956 E0.00901
G1 X100.550 Y84.288 E0.04174
G1 F8640
G1 X100.550 Y82.956 E-0.30740
G1 X100.383 Y82.722 E-0.06633
G1 X100.245 Y82.601 E-0.04249
G1 X100.088 Y82.504 E-0.04249
G1 X99.918 Y82.436 E-0.04249
G1 X99.796 Y82.409 E-0.02885
G1 X99.796 Y83.405 E-0.22994
G1 E-0.04000 F2100.00000
G1 Z0.800 F10800.000
G1 X101.304 Y86.384
G1 Z0.200
G1 E0.80000 F2100.00000
G1 F1200
G1 X101.304 Y87.186 E0.02517
G1 X101.444 Y87.130 E0.00473
G1 X102.058 Y86.746 E0.02271
G1 X102.058 Y85.812 E0.02930
G1 X102.812 Y85.128 E0.03191
G1 X102.812 Y86.261 E0.03551
G1 F8640
G1 X102.812 Y85.128 E-0.26154
G1 X102.058 Y85.812 E-0.23499
G1 X102.058 Y86.746 E-0.21576
G1 X101.883 Y86.856 E-0.04770
G1 E-0.04000 F2100.00000
G1 Z0.800 F10800.000
G1 X88.483 Y94.607
G1 Z0.200
G1 E0.80000 F2100.00000
G1 F1200
G1 X88.483 Y80.887 E0.43021
G1 X87.729 Y80.887 E0.02365
G1 X87.729 Y94.438 E0.42489
G1 X86.975 Y94.438 E0.02365
G1 X86.975 Y80.887 E0.42489
G1 X86.221 Y80.887 E0.02365
G1 X86.221 Y94.438 E0.42489
G1 X85.467 Y94.438 E0.02365
G1 X85.467 Y80.887 E0.42489
G1 X84.712 Y80.887 E0.02365
G1 X84.712 Y94.438 E0.42489
G1 X84.278 Y94.438 E0.01363
G1 X84.278 Y85.209 E0.28935
G1 X83.958 Y85.209 E0.01001
G1 X83.958 Y80.887 E0.13554
G1 X83.204 Y80.887 E0.02365
G1 X83.204 Y85.209 E0.13554
G1 X82.450 Y85.209 E0.02365
G1 X82.450 Y80.887 E0.13554
G1 X81.696 Y80.887 E0.02365
G1 X81.696 Y85.209 E0.13554
G1 X80.942 Y85.209 E0.02365
G1 X80.942 Y80.887 E0.13554
G1 X80.187 Y80.887 E0.02365
G1 X80.187 Y85.209 E0.13554
G1 X79.433 Y85.209 E0.02365
G1 X79.433 Y80.887 E0.13554
G1 X78.679 Y80.887 E0.02365
G1 X78.679 Y85.209 E0.13554
G1 X77.925 Y85.209 E0.02365
G1 X77.925 Y80.887 E0.13554
G1 X77.171 Y80.887 E0.02365
G1 X77.171 Y85.209 E0.13554
G1 X76.417 Y85.209 E0.02365
G1 X76.417 Y80.887 E0.13554
G1 X75.662 Y80.887 E0.02365
G1 X75.662 Y85.209 E0.13554
G1 X74.908 Y85.209 E0.02365
G1 X74.908 Y80.887 E0.13554
G1 X74.154 Y80.887 E0.02365
G1 X74.154 Y85.209 E0.13554
G1 X73.400 Y85.209 E0.02365
G1 X73.400 Y80.887 E0.13554
G1 X73.124 Y80.887 E0.00866
G1 X72.912 Y80.376 E0.01733
G1 X73.400 Y79.888 E0.02163
G1 X73.400 Y77.887 E0.06276
G1 X74.154 Y77.887 E0.02365
G1 X74.154 Y79.134 E0.03911
G1 X74.908 Y78.380 E0.03344
G1 X74.908 Y77.717 E0.02078
G1 F8640
G1 X74.908 Y78.380 E-0.15306
G1 X74.154 Y79.134 E-0.24627
G1 X74.154 Y77.887 E-0.28802
G1 X73.840 Y77.887 E-0.07265
G1 E-0.04000 F2100.00000
G1 Z0.800 F10800.000
G1 X120.158 Y85.971
G1 Z0.200
G1 E0.80000 F2100.00000
G1 F1200
G1 X120.158 Y84.935 E0.03249
G1 X120.912 Y85.595 E0.03143
G1 X120.912 Y86.561 E0.03028
G1 X121.453 Y86.961 E0.02108
G1 X121.666 Y87.068 E0.00750
G1 X121.666 Y86.389 E0.02130
G1 X122.224 Y87.013 E0.02623
G1 X122.420 Y87.267 E0.01008
G1 X122.420 Y87.557 E0.00910
G1 F8640
G1 X122.420 Y87.267 E-0.06704
G1 X122.224 Y87.013 E-0.07420
G1 X121.666 Y86.389 E-0.19316
G1 X121.666 Y87.068 E-0.15684
G1 X121.453 Y86.961 E-0.05523
G1 X120.912 Y86.561 E-0.15525
G1 X120.912 Y86.308 E-0.05827
G1 E-0.04000 F2100.00000
G1 Z0.800 F10800.000
G1 X123.174 Y84.651
G1 Z0.200
G1 E0.80000 F2100.00000
G1 F1200
G1 X123.174 Y82.477 E0.06816
G1 X123.371 Y82.412 E0.00650
G1 X123.554 Y82.389 E0.00577
G1 X123.738 Y82.397 E0.00577
G1 X123.929 Y82.440 E0.00614
G1 X123.929 Y84.682 E0.07029
G1 F8640
G1 X123.929 Y82.440 E-0.51760
G1 X123.738 Y82.397 E-0.04518
G1 X123.554 Y82.389 E-0.04249
G1 X123.371 Y82.412 E-0.04249
G1 X123.174 Y82.477 E-0.04784
G1 X123.174 Y82.756 E-0.06439
G1 E-0.04000 F2100.00000
G1 Z0.800 F10800.000
G1 X125.437 Y80.229
G1 Z0.200
G1 E0.80000 F2100.00000
G1 F1200
G1 X125.437 Y79.813 E0.01305
G1 X124.799 Y79.557 E0.02155
G1 X124.683 Y79.532 E0.00374
G1 X124.683 Y80.059 E0.01655
G1 X123.929 Y80.059 E0.02365
G1 X123.929 Y79.402 E0.02060
G1 X123.426 Y79.381 E0.01577
G1 X123.174 Y79.413 E0.00796
G1 X123.174 Y80.059 E0.02026
G1 X122.420 Y80.059 E0.02365
G1 X122.420 Y79.566 E0.01546
G1 X122.073 Y79.673 E0.01139
G1 X121.666 Y79.878 E0.01428
G1 X121.666 Y80.229 E0.01102
G1 F8640
G1 X121.666 Y79.878 E-0.08115
G1 X122.073 Y79.673 E-0.10517
G1 X122.420 Y79.566 E-0.08391
G1 X122.420 Y80.059 E-0.11389
G1 X123.174 Y80.059 E-0.17414
G1 X123.174 Y79.413 E-0.14922
G1 X123.400 Y79.384 E-0.05252
G1 E-0.04000 F2100.00000
G1 Z0.800 F10800.000
G1 X88.483 Y131.521
G1 Z0.200
G1 E0.80000 F2100.00000
G1 F1200
G1 X88.483 Y120.807 E0.33592
G1 X87.729 Y120.807 E0.02365
G1 X87.729 Y131.351 E0.33060
G1 X86.975 Y131.351 E0.02365
G1 X86.975 Y120.807 E0.33060
G1 X86.221 Y120.807 E0.02365
G1 X86.221 Y131.351 E0.33060
G1 X85.467 Y131.351 E0.02365
G1 X85.467 Y120.807 E0.33060
G1 X84.712 Y120.807 E0.02365
G1 X84.712 Y131.521 E0.33592
G1 F8640
G1 X84.712 Y128.229 E-0.76000
G1 E-0.04000 F2100.00000
G1 Z0.800 F10800.000
G1 X102.810 Y106.627
G1 Z0.200
G1 E0.80000 F2100.00000
G1 F1200
G1 X101.944 Y105.890 E0.03565
G1 X101.553 Y105.514 E0.01699
G1 X100.423 Y104.240 E0.05340
G1 X99.573 Y103.031 E0.04632
G1 X99.184 Y102.371 E0.02404
G1 X98.800 Y101.632 E0.02609
G1 X98.216 Y100.234 E0.04753
G1 X97.751 Y98.635 E0.05220
G1 X97.636 Y98.074 E0.01796
G1 X97.483 Y97.059 E0.03218
G1 X97.396 Y95.731 E0.04174
G1 X97.403 Y95.299 E0.01355
G1 X97.529 Y93.517 E0.05601
G1 X97.750 Y92.307 E0.03854
G1 X98.002 Y91.371 E0.03042
G1 X98.192 Y90.772 E0.01968
G1 X98.873 Y89.156 E0.05498
G1 X99.572 Y87.909 E0.04483
G1 X100.315 Y86.845 E0.04068
G1 X101.511 Y85.475 E0.05702
G1 X102.682 Y84.410 E0.04965
G1 X104.358 Y83.251 E0.06388
G1 X105.431 Y82.674 E0.03819
G1 X106.604 Y82.173 E0.04002
G1 X106.908 Y82.062 E0.01013
G1 X108.713 Y81.563 E0.05873
G1 X110.004 Y81.356 E0.04099
G1 X111.073 Y81.277 E0.03361
G1 X111.601 Y81.267 E0.01656
G1 X113.298 Y81.369 E0.05329
G1 X114.756 Y81.623 E0.04640
G1 X115.601 Y81.845 E0.02740
G1 X116.292 Y82.065 E0.02273
G1 X117.693 Y82.641 E0.04751
G1 X119.153 Y83.443 E0.05223
G1 X119.720 Y83.820 E0.02133
G1 X120.457 Y84.368 E0.02879
G1 X121.450 Y85.239 E0.04141
G1 X121.647 Y85.432 E0.00868
G1 X122.703 Y86.614 E0.04968
G1 X122.942 Y86.922 E0.01223
G1 X123.628 Y87.916 E0.03787
G1 X124.142 Y88.809 E0.03229
G1 X124.401 Y89.315 E0.01783
G1 X125.070 Y90.962 E0.05574
G1 X125.449 Y92.313 E0.04400
G1 X125.609 Y93.131 E0.02612
G1 X125.717 Y93.889 E0.02401
G1 X125.806 Y95.478 E0.04992
G1 X125.671 Y97.429 E0.06132
G1 X125.450 Y98.639 E0.03854
G1 X125.198 Y99.575 E0.03042
G1 X125.008 Y100.174 E0.01968
G1 X124.327 Y101.790 E0.05498
G1 X123.629 Y103.036 E0.04478
G1 X123.269 Y103.570 E0.02022
G1 X122.705 Y104.338 E0.02988
G1 X121.689 Y105.471 E0.04772
G1 X120.613 Y106.457 E0.04575
G1 X119.017 Y107.592 E0.06142
G1 X117.771 Y108.271 E0.04449
G1 X116.821 Y108.685 E0.03247
G1 X116.294 Y108.883 E0.01767
G1 X114.731 Y109.331 E0.05097
G1 X113.197 Y109.590 E0.04877
G1 X112.385 Y109.656 E0.02557
G1 X111.601 Y109.679 E0.02458
G1 X110.161 Y109.606 E0.04520
G1 X108.446 Y109.324 E0.05451
G1 X107.853 Y109.172 E0.01919
G1 X106.910 Y108.882 E0.03093
G1 X105.753 Y108.418 E0.03909
G1 X105.434 Y108.270 E0.01101
G1 X104.047 Y107.503 E0.04971
G1 X103.700 Y107.274 E0.01302
G1 X102.858 Y106.662 E0.03264
G1 X102.437 Y106.772 F10800.000
G1 F8640
G1 X101.944 Y105.890 E-0.27637
G1 X101.553 Y105.514 E-0.12515
G1 X100.523 Y104.352 E-0.35848
G1 E-0.04000 F2100.00000
G1 Z0.800 F10800.000
G1 X101.622 Y106.947
G1 Z0.200
G1 E0.80000 F2100.00000
G1 F1200
G1 X101.682 Y107.296 E0.01111
G1 X101.682 Y107.650 E0.01111
G1 X101.622 Y107.999 E0.01111
G1 X101.504 Y108.334 E0.01111
G1 X101.331 Y108.643 E0.01111
G1 X101.108 Y108.919 E0.01111
G1 X100.842 Y109.153 E0.01111
G1 X100.541 Y109.339 E0.01111
G1 X100.212 Y109.471 E0.01111
G1 X99.865 Y109.545 E0.01111
G1 X99.511 Y109.560 E0.01111
G1 X99.160 Y109.515 E0.01111
G1 X98.821 Y109.412 E0.01111
G1 X98.505 Y109.252 E0.01111
G1 X98.220 Y109.041 E0.01111
G1 X97.975 Y108.786 E0.01111
G1 X97.776 Y108.492 E0.01111
G1 X97.630 Y108.169 E0.01111
G1 X97.541 Y107.826 E0.01111
G1 X97.511 Y107.473 E0.01111
G1 X97.541 Y107.120 E0.01111
G1 X97.630 Y106.777 E0.01111
G1 X97.776 Y106.454 E0.01111
G1 X97.975 Y106.161 E0.01111
G1 X98.220 Y105.905 E0.01111
G1 X98.505 Y105.694 E0.01111
G1 X98.821 Y105.534 E0.01111
G1 X99.160 Y105.431 E0.01111
G1 X99.511 Y105.386 E0.01111
G1 X99.865 Y105.401 E0.01111
G1 X100.212 Y105.475 E0.01111
G1 X100.541 Y105.608 E0.01111
G1 X100.842 Y105.793 E0.01111
G1 X101.108 Y106.027 E0.01111
G1 X101.331 Y106.303 E0.01111
G1 X101.504 Y106.612 E0.01111
G1 X101.602 Y106.890 E0.00923
G1 X101.246 Y107.016 F10800.000
G1 F1200
G1 X101.305 Y107.328 E0.00996
G1 X101.305 Y107.618 E0.00910
G1 X101.256 Y107.904 E0.00910
G1 X101.159 Y108.178 E0.00910
G1 X101.017 Y108.431 E0.00910
G1 X100.835 Y108.657 E0.00910
G1 X100.617 Y108.848 E0.00910
G1 X100.370 Y109.001 E0.00910
G1 X100.101 Y109.109 E0.00910
G1 X99.817 Y109.170 E0.00910
G1 X99.527 Y109.182 E0.00910
G1 X99.240 Y109.145 E0.00910
G1 X98.962 Y109.060 E0.00910
G1 X98.703 Y108.930 E0.00910
G1 X98.470 Y108.757 E0.00910
G1 X98.269 Y108.548 E0.00910
G1 X98.106 Y108.307 E0.00910
G1 X97.987 Y108.043 E0.00910
G1 X97.914 Y107.762 E0.00910
G1 X97.889 Y107.473 E0.00910
G1 X97.914 Y107.184 E0.00910
G1 X97.987 Y106.903 E0.00910
G1 X98.106 Y106.639 E0.00910
G1 X98.269 Y106.398 E0.00910
G1 X98.470 Y106.189 E0.00910
G1 X98.703 Y106.016 E0.00910
G1 X98.962 Y105.886 E0.00910
G1 X99.240 Y105.801 E0.00910
G1 X99.527 Y105.764 E0.00910
G1 X99.817 Y105.776 E0.00910
G1 X100.101 Y105.837 E0.00910
G1 X100.370 Y105.945 E0.00910
G1 X100.617 Y106.098 E0.00910
G1 X100.835 Y106.289 E0.00910
G1 X101.017 Y106.515 E0.00910
G1 X101.159 Y106.768 E0.00910
G1 X101.226 Y106.959 E0.00634
G1 X101.553 Y107.097 F10800.000
G1 F8640
G1 X101.305 Y107.328 E-0.08707
G1 X101.305 Y107.618 E-0.06700
G1 X101.256 Y107.904 E-0.06700
G1 X101.159 Y108.178 E-0.06700
G1 X101.017 Y108.431 E-0.06700
G1 X100.835 Y108.657 E-0.06700
G1 X100.617 Y108.848 E-0.06700
G1 X100.370 Y109.001 E-0.06700
G1 X100.101 Y109.109 E-0.06700
G1 X99.817 Y109.170 E-0.06700
G1 X99.527 Y109.182 E-0.06700
G1 X99.515 Y109.181 E-0.00293
G1 E-0.04000 F2100.00000
G1 Z0.800 F10800.000
G1 X99.865 Y85.545
G1 Z0.200
G1 E0.80000 F2100.00000
G1 F1200
G1 X99.511 Y85.560 E0.01111
G1 X99.160 Y85.515 E0.01111
G1 X98.821 Y85.412 E0.01111
G1 X98.505 Y85.252 E0.01111
G1 X98.220 Y85.041 E0.01111
